X:190
T: WO BIST DU DENN GEWESEN
N: K2444A
O: Europa, Mitteleuropa, Deutschland, Saarland
R: Kinder - Lied, Tanz -, Lauf - Spiel
M: 3/4
L: 1/8
K: G
dd | d2B2BB | B2G2
G2 | F2A2e2 | e2d2
dd | d2B2BB | B2G2
B2 | c2B2A2 | G2z2

@@@ Tune index: 7527
